X:3175
T:Juliette
O:england
M:3/4
L:1/8
Q:1/4=150
C:Trad(?) French
S:Variation from Jo Downie
B:Massif Central Tune Book Vol1
K:G
GA|"G"BABdGA|"G"BABdGB|"D"AGAcFA|"G"B2 G2 GA|
"G"BABdGA|"G"BABdGB|"D"AGAcFA|"G"G4:|
(3FEF|"D"A2 DFdc|"C"c2 B2 EF|"G"GEFGcB|"D"A4 (3FEF|
"D"A2 DFdc|"C"c2 B2 EF|"G"GFGABc|"D"d4:|
Bd|"G"GBDGBd|"C"d2 c2 Ac|"D"FADFAc|"G"c2 B2 Bd|
"G"GBDGBd|"C"d2 c2 Ac|"D"FADFAF|"G"G4:|


